**kern	**kern	**dynam
*part1	*part1	*part1
*staff2	*staff1	*staff1
*IPiano	*IPiano	*IPiano
*clefG2	*clefG2	*clefG2
*k[b-]	*k[b-]	*k[b-]
*M4/4	*M4/4	*M4/4
*MM44	*MM44	*MM44
=1	=1	=1
!Tempo Marking: Triste et lent	!Tempo Marking: Triste et lent	!Tempo Marking: Triste et lent
!Expression: Ce rythme doit avoir la valeur sonore d'un fond de paysage triste et glace	!	!
*^	*	*
(>24dKL	2d~	1r	pp<
[12.e)	.	.	[>
12eJ_	.	.	.
4e]	.	.	]
(>24eKL	2d~	.	<
[12.f)	.	.	[>
12fJ_	.	.	.
4f]	.	.	]
=2	=2	=2	=2
!	!	!	!Dynamic Expression: piu
(>24dKL	2d~	4r	pp>
[12.e)	.	.	.
12eJ_	.	.	]
!	!	!Expression: expressif et douloureux	!
4e]	.	(>2b-~	p
(>24eKL	2d~	.	>
[12.f)	.	.	.
12fJ_	.	.	]
4f]	.	8ccL	.
.	.	8dd,J)	.
=3	=3	=3	=3
(>24dKL	2d~	4r	.
[12.e)	.	.	.
12eJ_	.	.	.
4e]	.	(>4ee~	.
(>24eKL	2d~	12ddL	.
[12.f)	.	.	.
.	.	12cc	.
12fJ_	.	12b-J	.
4f]	.	[4g	.
=4	=4	=4	=4
(>24dKL	2d~	4g]	.
[12.e)	.	.	.
12eJ_	.	.	.
4e]	.	4cc	>
(>24eKL	2d~	2a)	.
[12.f)	.	.	]
12fJ_	.	.	.
4f]	.	.	.
*clefF4	*	*	*
=5	=5	=5	=5
*	*^	*	*
!Expression: m.d.	!	!	!	!
(>24dKL	2Bn	(<2GG\ 2D	4r	.
[12.e)	.	.	.	.
12eJ_	.	.	.	.
4e]	.	.	(>4a~	<
(>24eKL	2A	2FF\ 2C	4r	.
[12.f)	.	.	.	.
12fJ_	.	.	.	.
4f]	.	.	4bn~	.
=6	=6	=6	=6	=6
(>24dKL	2G	2EE\ 2BBn	4r	.
[12.e)	.	.	.	.
12eJ_	.	.	.	.
4e]	.	.	4cc~	.
(>24eKL	[2A	[2DD\) [2AA [2F	4r	.
[12.f)	.	.	.	.
12fJ_	.	.	.	.
4f_	.	.	8dd'L	.
.	.	.	[8ee'J	.
=7	=7	=7	=7	=7
8f]	8A]	8DD/] 8AA] 8F]	4ee]	[
8r	8r	8r	.	.
4r	4r	4r	12ccL	>
.	.	.	12a	.
.	.	.	12gJ	.
2r	2r	2r	4e'	.
.	.	.	4c',)	.
*v	*v	*v	*	*
=8	=8	=8
!	!Expression: expressif	!
*^	*^	*
(>2C	(<4FF#X	(>24dKL	2B-X	]pp
.	.	[12.e)	.	.
.	.	12eJ_	.	.
.	4GG	4e]	.	.
2C#X)	4GG#X	(>24eKL	2Bn	.
.	.	[12.f)	.	.
.	.	12fJ_	.	.
.	4CC#X)	4f]	.	.
=9	=9	=9	=9	=9
(>2Cn	(<4FF#X	(>24dKL	2B-X	.
.	.	[12.e)	.	.
.	.	12eJ_	.	.
.	4GG	4e]	.	.
2C#X)	4GG#X	(>24eKL	2Bn	.
.	.	[12.f)	.	.
.	.	12fJ_	.	.
.	4C#)	4f]	.	.
*v	*v	*	*	*
=10	=10	=10	=10
4ryy	(>24dKL	<2B-X 2d	.
.	[12.e)	.	.
.	12eJ_	.	.
(4A	4e]	.	.
4A-	(>24eKL	2c- 2d-	.
.	[12.f)	.	.
.	12fJ_	.	.
4D-)	4f]	.	.
=11	=11	=11	=11
*^	*	*	*
>2F	4r	>24dKL	4c	.
.	.	[12.e)	.	.
.	.	12eJ_	.	.
.	(<8AA-L	4e]	4Bn	<
.	8GGJ	.	.	.
[2D-	2r)yy	(>24eKL	[2G-) [2B-X	[<
.	.	[12.f)	.	.
.	.	12fJ_	.	[
.	.	4f_	.	.
*v	*v	*	*	*
=12	=12	=12	=12
(>8D-L]	2..f]	2..G-] 2..B-]	.
[8E-J	.	.	.
8E-L]	.	.	.
8CJ	.	.	.
12BB-L	.	.	<
12AA-	.	.	.
12CJ	.	.	.
8D-L	.	.	.
[8E-~J)	[8f~^	[8G- [8B-	[[
=13	=13	=13	=13
*M2/4	*M2/4	*M2/4	*M2/4
!Tempo Marking: Cedez	!Tempo Marking: Cedez	!Tempo Marking: Cedez	!Tempo Marking: Cedez
8E-XL]	2f]	2G-X] 2B-]	[>
8CJ	.	.	.
12BB-L	.	.	.
12AA-	.	.	.
[12CJ	.	.	.
*	*v	*v	*
=14	=14	=14
*M4/4	*M4/4	*
*^	*^	*
1C_	(<24FF#KL	4r	[1En [1B- [1f#	]pp>
.	[12.CC)	.	.	.
.	12CCJ_	.	.	]
.	4CC]	(>4e' 4ee	.	.
.	(<24FF#KL	4r	.	>
.	[12.CC)	.	.	.
.	12CCJ_	.	.	]
.	(<4CC_	4a-') 4aa-	.	.
=15	=15	=15	=15	=15
!Tempo Marking: Retenu	!Tempo Marking: Retenu	!Tempo Marking: Retenu	!Tempo Marking: Retenu	!Tempo Marking: Retenu
4C]	2CC]	1ryy	4E] 4B-] 4f#X]	.
4r	.	.	4r	.
2r	4BBBn	.	2r	.
.	4BBB-)	.	.	.
*v	*v	*	*	*
=16	=16	=16	=16
4r	(>24dKL	2d~	pp
.	[12.e)	.	.
.	12eJ_	.	.
(>4G	4e]	.	.
4A-X	(>24eKL	2d~	.
.	[12.f)	.	.
.	12fJ_	.	.
4B-)	4f]	.	.
*	*v	*v	*
=17	=17	=17
*clefG2	*	*
*^	*	*
*	*^	*	*
(>24dKL	2d	4rBB	4r	pp
[12.e)	.	.	.	.
12eJ_	.	.	.	.
4e]	.	(<4G\	(>2cc~	p>
(>24eKL	2d	4A-\	.	.
[12.f)	.	.	.	.
12fJ_	.	.	.	.
4f]	.	4B-\)	4a-)	]
=18	=18	=18	=18	=18
(>24dKL	2d	4rBB	4r	]
[12.e)	.	.	.	.
12eJ_	.	.	.	.
4e]	.	(<4G\	(>[4ee~	<
(>24eKL	2d	4A-\	12eeL]	.
[12.f)	.	.	.	.
.	.	.	12dd	.
12fJ_	.	.	12ccJ	.
4f]	.	4B-\)	4a-)	.
*v	*v	*v	*	*
=19	=19	=19
!Tempo Marking: Cedez	!Tempo Marking: Cedez	!Tempo Marking: Cedez
*^	*	*
(>24dKL	2d~	4r	[
[12.e)	.	.	.
12eJ_	.	.	.
!	!	!	!Dynamic Expression: piu
4e]	.	(>4ee~	p>
24eKL	2d~	12ddL	.
[12.f	.	.	.
.	.	12cc	.
12fJ_	.	12b-J	.
4f]	.	8g'L	.
.	.	8a'ZJ)	.
*v	*v	*	*
=20	=20	=20
*clefF4	*	*
!Tempo Marking: a Tempo	!Tempo Marking: a Tempo	!Tempo Marking: a Tempo
*^	*	*
*	*^	*	*
!Expression: m.d.	!	!	!	!
(>24dKL	2Bn	(<2GG\ 2D	4r	]pp
[12.e)	.	.	.	.
12eJ_	.	.	.	.
4e]	.	.	(<4a~	.
(>24eKL	2A	2FF\ 2C	4r	.
[12.f)	.	.	.	.
12fJ_	.	.	.	.
4f]	.	.	4bn~)	.
=21	=21	=21	=21	=21
!Tempo Marking: En animant surtout dans l'expression	!Tempo Marking: En animant surtout dans l'expression	!Tempo Marking: En animant surtout dans l'expression	!Tempo Marking: En animant surtout dans l'expression	!Tempo Marking: En animant surtout dans l'expression
(>24dKL	2G	2EE\ 2BBn	4r	.
[12.e)	.	.	.	.
12eJ_	.	.	.	.
!	!	!	!Expression: expressif et tendre	!
4e]	.	.	(>4cc-'	p
(>24eKL	2F 2c-	[2DD-\) [2AA-	4r	.
[12.f)	.	.	.	.
12fJ_	.	.	.	.
!Expression: m.g.	!	!	!	!
4f]	.	.	8ee-L	.
.	.	.	[8cc-'J	.
=22	=22	=22	=22	=22
(>24eKL	2A-X 2c-	2DD-\] 2AA-]	8cc-L]	.
[12.f)	.	.	.	.
.	.	.	8dd-	.
12fJ_	.	.	.	.
4f]	.	.	8b-	.
.	.	.	8a-XJ)	.
!	!	!	!	!Dynamic Expression: sempre
(>24eKL	2F 2c-	(<[2DD-\ [2AA-	4r	pp
[12.f)	.	.	.	.
12fJ_	.	.	.	.
4f]	.	.	(>8ee-L	<
.	.	.	[8cc-J	.
=23	=23	=23	=23	=23
!Expression: m.g.	!	!	!	!
(>24eKL	2A- 2c-	2DD-\] 2AA-]	8cc-L]	.
[12.f)	.	.	.	.
.	.	.	8dd-	.
12fJ_	.	.	.	.
4f]	.	.	8ee-	.
.	.	.	[8ffJ	.
(>24eKL	2G- 2cn	2DDn\	4ff]	[
[12.f)	.	.	.	.
12fJ_	.	.	.	.
4f]	.	.	8aa-~L	<
.	.	.	[8ffJ	.
=24	=24	=24	=24	=24
(>24enKL	2G 2d-	2EE-\	8ff])	[
[12.f)	.	.	.	.
.	.	.	8r	.
12fJ_	.	.	.	.
4f]	.	.	(>8ff~L	<
.	.	.	[8dd-J)	.
(>24eKL	[2A- [2dn	[2EEn\)	8dd-]	[
[12.f)	.	.	.	.
.	.	.	8r	.
12fJ_	.	.	.	.
4f_	.	.	(>8dd-iL	>
.	.	.	[8b-J	.
=25	=25	=25	=25	=25
!Tempo Marking: Retenu	!Tempo Marking: Retenu	!Tempo Marking: Retenu	!Tempo Marking: Retenu	!Tempo Marking: Retenu
4f]	4A-] 4d]	4EE\]	4b-]	]
4r	4r	4r	2a-	.
2r	2r	2r	.	.
.	.	.	4fZ)	.
*v	*v	*v	*	*
=26	=26	=26
!	!Tempo Marking: a Tempo	!
*	*^	*
(>2G 2B- 2d	(>24dKL	2d	pp
.	[12.e)	.	.
.	12eJ_	.	.
.	4e]	.	.
2G- 2An 2d-	(>24eKL	2ryy	.
.	[12.f)	.	.
.	12fJ_	.	.
.	4f]	.	.
=27	=27	=27	=27
*^	*	*	*
*	*^	*	*	*
(>4c	2F 2G#	2ryy	(>24dKL	2d	.
.	.	.	[12.e)	.	.
.	.	.	12eJ_	.	.
4Bn	.	.	4e]	.	.
4A)	2F	2DD\) 2AA	(>24eKL	2ryy	.
.	.	.	[12.f)	.	.
.	.	.	12fJ_	.	.
!Expression: m.g.	!	!	!	!	!
[4c~	.	.	4f]	.	.
*	*v	*v	*	*	*
=28	=28	=28	=28	=28
4c]	(<2F 2A-	2r	(>24dKL	.
.	.	.	[12.e)	.
.	.	.	12eJ_	.
4Bn)	.	.	4e]	.
24eKL)	[2A-) [2c-	4r	2ryy	.
[12.f)	.	.	.	.
12fJ_	.	.	.	.
!	!	!Expression: Comme un tendre et triste regret	!	!
4f_	.	(>8ee-L	.	p
.	.	[8cc-J	.	.
*	*	*v	*v	*
=29	=29	=29	=29
(4.f]	(<4.A-] 4.c-X]	8cc-XL]	.
.	.	8dd-	.
.	.	8b-	.
*clefG2	*	*	*
8c-X 8e- 8a-	8ryy	[8a-J)	.
8B-L 8d- 8g-	2ryy	4a-]	.
8d-J 8f 8b-	.	.	.
4A- 4c- 4f	.	(8ee-L	<
.	.	[8cc-J	.
*v	*v	*	*
=30	=30	=30
4B- 4d- 4g-	8cc-L]	.
.	8dd-	.
4c- 4e- 4a-	8ee-	.
.	[8ffJ)	.
4d- 4f 4b-	4ff]	.
4e- 4g- 4cc-	(8ccc-~L	[p
.	[8aa-J)	.
=31	=31	=31
4f 4a- 4dd-	8aa-]	.
.	8r	.
4a- 4cc- 4ee-	(>8aa-~L	>
.	[8ffJ)	.
4dd- 4ff 4aa-	8ff]	]
.	8r	.
(>8ff~L)	4ff) 4aa- 4ddd-	>
8dd-J)	.	]]
=32	=32	=32
!Tempo Marking: Plus lent	!Tempo Marking: Plus lent	!Tempo Marking: Plus lent
*^	*	*
*	*^	*	*
2ddn	(>24ddKL	4rA	(<24dddnKL	]pp>
.	12.ryy	.	[12.ee) [12.eee)		]
.	12ryy	.	12eeeJ_ 12eeJ_	.
.	4ryy	(<8cc#'\L	4eee] 4ee]	>
.	.	8b-'\J)	.	.
2dd	(>24eeKL	4rA	(<24eeeKL	]pp>
.	12.ryy	.	[12.fff) [12.ff)	]
.	12ryy	.	12fffJ_ 12ffJ_	.
.	4ryy	(<8b-'\L	4fff] 4ff]	>
.	.	8g'\J)	.	.
=33	=33	=33	=33	=33
2ddn	(>24ddKL	4rA	(<24dddnKL	]pp>
.	12.ryy	.	[12.eee) [12.ee)	]
.	12ryy	.	12eeeJ_ 12eeJ_	.
.	4ryy	(<8cc#X'\L	4eee] 4ee]	>
.	.	8b-X'\J)	.	.
[2dd	(<24eeKL	4rA	(<24eeeKL	]pp>
.	12.ryy	.	[12.fff) [12.ff)	]
.	12ryy	.	12fffJ_ 12ffJ_	.
.	4ryy	(<[8b-'\L	4fff_ 4ff_	>
.	.	[8g'\J)	.	.
=34	=34	=34	=34	=34
!Tempo Marking: Tres lent	!Tempo Marking: Tres lent	!Tempo Marking: Tres lent	!Tempo Marking: Tres lent	!Tempo Marking: Tres lent
2g]	2.dd]	2.b-\]	2.ff] 2.fff]	]
(<4d'	.	.	.	.
*clefF4	*	*	*	*
!Tempo Marking: morendo	!Tempo Marking: morendo	!Tempo Marking: morendo	!Tempo Marking: morendo	!Tempo Marking: morendo
4G'	4ryy	4rA	4r	.
*v	*v	*v	*	*
=35	=35	=35
4D'	1r	.
4GG'	.	.
4DD'	.	.
4GGG'	.	.
=36	=36	=36
1DDD;) 1AAA	1ff; 1ddd 1fff	ppp
==	==	==
*-	*-	*-
!!!system-decoration: {(s1,s2)}
!!!RDF**kern: > = above
!!!RDF**kern: < = below
!!!RDF**kern: i = editorial accidental
!!!RDF**kern: Z = caesura
